src/icons/graphviz.svg

<svg width="16" height="16" viewBox="0 0 16 16" fill="none" xmlns="http://www.w3.org/2000/svg">
<path d="M11.2171 7.93999L9.8061 2.93799C9.73518 2.68694 9.56896 2.47354 9.3429 2.34332C9.11684 2.21311 8.84885 2.17638 8.5961 2.24099L1.9861 3.92599C1.85748 3.95875 1.73667 4.01679 1.63071 4.09671C1.52475 4.17664 1.43576 4.27686 1.36893 4.39154C1.3021 4.50621 1.25876 4.63304 1.24145 4.76463C1.22414 4.89622 1.2332 5.02994 1.2681 5.15799L3.4161 13.048C3.48508 13.3016 3.65113 13.5178 3.87831 13.65C4.1055 13.7821 4.37557 13.8195 4.6301 13.754L11.3101 12.034C11.4391 12.0008 11.5602 11.9421 11.6663 11.8614C11.7723 11.7807 11.8612 11.6796 11.9276 11.5641C11.994 11.4485 12.0367 11.3209 12.0531 11.1887C12.0695 11.0564 12.0593 10.9222 12.0231 10.794L11.5051 8.95699L10.2231 8.41599C9.9191 8.71399 9.4681 8.91499 8.9981 8.91499C8.0781 8.91499 7.3301 8.20699 7.3301 7.33699C7.3301 6.46699 8.0781 5.75899 8.9981 5.75899C9.9181 5.75899 10.6651 6.46699 10.6651 7.33699C10.6651 7.46366 10.6498 7.58633 10.6191 7.70499L11.2171 7.93999ZM7.6461 5.01999C7.6461 5.01999 7.4361 5.11999 7.3971 5.19199L7.3931 5.19999L7.4111 5.21599C7.5511 5.33399 7.7591 5.51099 8.0041 5.75599C7.88955 5.82088 7.7817 5.89691 7.6821 5.98299C7.51155 5.81568 7.33441 5.65522 7.1511 5.50199L7.1411 5.49399C7.0941 5.57799 7.0461 5.75699 7.0461 5.75699C7.0461 5.75699 6.8491 5.07899 6.7621 4.90699C6.8851 4.95199 7.4701 5.04699 7.6461 5.01999ZM5.6071 13.078C4.8281 13.273 4.0871 13.023 3.9521 12.519C3.8261 12.049 4.2721 11.526 4.9641 11.299C4.5211 9.95199 4.1931 7.99699 4.8571 5.86899L4.8321 5.85599C4.7601 5.81399 4.5271 5.83599 4.5271 5.83599C4.6921 5.77099 5.1341 5.38999 5.2151 5.28899C5.2351 5.47899 5.4401 6.15499 5.4401 6.15499C5.4401 6.15499 5.3171 6.04299 5.2301 5.99099C4.5961 8.03599 4.9201 9.91799 5.3481 11.21C6.0451 11.11 6.6881 11.352 6.7731 11.814C6.8781 12.381 6.3861 12.884 5.6071 13.078ZM10.3711 11.826C9.5921 12.021 8.8511 11.771 8.7161 11.268C8.6151 10.89 8.8831 10.477 9.3531 10.212C9.1801 10.169 8.6181 10.031 8.4451 10.02L8.7281 9.91199L7.3781 8.68599C7.16119 8.78132 6.93137 8.844 6.6961 8.87199L6.1591 10.548L6.4491 10.545C6.2301 10.56 5.7791 11.189 5.7791 11.189C5.7791 11.189 5.6261 10.452 5.5471 10.269L5.7721 10.466L6.2821 8.87699C5.8021 8.83099 5.4261 8.60599 5.3331 8.26099C5.1981 7.75699 5.7201 7.19099 6.4991 6.99599L6.5181 6.99199C6.3781 6.84899 6.0081 6.47499 5.8741 6.38199L6.1741 6.43599L5.8281 5.23899C5.1211 5.35299 4.4851 5.10399 4.3611 4.64199C4.2261 4.13799 4.7481 3.57199 5.5261 3.37699C6.3061 3.18199 7.0461 3.43299 7.1811 3.93599C7.3051 4.39599 6.8791 4.90899 6.2101 5.14199L6.5471 6.31199L6.7931 6.16099C6.6481 6.26099 6.5931 6.78699 6.5771 6.97799C6.70376 6.95133 6.82876 6.93566 6.9521 6.93099C6.93106 7.04715 6.92035 7.16495 6.9201 7.28299C6.9201 8.25099 7.6361 9.06299 8.5911 9.26499L8.9751 9.61299L9.1001 9.35999C9.0281 9.53099 9.3121 10.06 9.3861 10.194C9.5341 10.114 9.7011 10.048 9.8821 10.004C9.88543 10.0027 9.88876 10.0017 9.8921 10.001C9.81887 9.68943 9.72908 9.38199 9.6231 9.07999C9.75043 9.03866 9.87076 8.98599 9.9841 8.92199C10.1021 9.25611 10.2022 9.59625 10.2841 9.94099C10.9111 9.90099 11.4591 10.139 11.5371 10.562C11.6411 11.13 11.1501 11.632 10.3711 11.826ZM11.9771 8.34199L11.9201 8.46599L10.7721 7.94199L10.5671 8.35999L11.7201 8.88699L11.6671 9.01299L14.6901 10.315L15.0001 9.64499L11.9771 8.34199Z" fill="#FFCB6B"/>
</svg>

<svg xmlns="http://www.w3.org/2000/svg" width="16" height="16" fill="none"><path fill="#FFCB6B" d="M11.217 7.94 9.806 2.938a1 1 0 0 0-1.21-.697L1.986 3.926a1 1 0 0 0-.718 1.232l2.148 7.89a1 1 0 0 0 1.214.706l6.68-1.72a1 1 0 0 0 .713-1.24l-.518-1.837-1.282-.541c-.304.298-.755.499-1.225.499-.92 0-1.668-.708-1.668-1.578s.748-1.578 1.668-1.578 1.667.708 1.667 1.578q0 .19-.046.368zM7.646 5.02s-.21.1-.249.172l-.004.008.018.016c.14.118.348.295.593.54a2 2 0 0 0-.322.227 9 9 0 0 0-.531-.481l-.01-.008c-.047.084-.095.263-.095.263s-.197-.678-.284-.85c.123.045.708.14.884.113m-2.039 8.058c-.779.195-1.52-.055-1.655-.559-.126-.47.32-.993 1.012-1.22-.443-1.347-.771-3.302-.107-5.43l-.025-.013c-.072-.042-.305-.02-.305-.02.165-.065.607-.446.688-.547.02.19.225.866.225.866s-.123-.112-.21-.164c-.634 2.045-.31 3.927.118 5.219.697-.1 1.34.142 1.425.604.105.567-.387 1.07-1.166 1.264m4.764-1.252c-.779.195-1.52-.055-1.655-.558-.101-.378.167-.791.637-1.056-.173-.043-.735-.181-.908-.192l.283-.108-1.35-1.226a2.4 2.4 0 0 1-.682.186l-.537 1.676.29-.003c-.219.015-.67.644-.67.644s-.153-.737-.232-.92l.225.197.51-1.589c-.48-.046-.856-.271-.949-.616-.135-.504.387-1.07 1.166-1.265l.019-.004c-.14-.143-.51-.517-.644-.61l.3.054-.346-1.197c-.707.114-1.343-.135-1.467-.597-.135-.504.387-1.07 1.165-1.265.78-.195 1.52.056 1.655.559.124.46-.302.973-.971 1.206l.337 1.17.246-.151c-.145.1-.2.626-.216.817q.19-.04.375-.047a2 2 0 0 0-.032.352c0 .968.716 1.78 1.671 1.982l.384.348.125-.253c-.072.171.212.7.286.834.148-.08.315-.146.496-.19q.005-.002.01-.003a9 9 0 0 0-.269-.921q.191-.062.361-.158a10 10 0 0 1 .3 1.019c.627-.04 1.175.198 1.253.621.104.568-.387 1.07-1.166 1.264m1.606-3.484-.057.124-1.148-.524-.205.418 1.153.527-.053.126 3.023 1.302.31-.67z"/></svg>
